!!!OTL: I WOASS A SCHOENI GLOCKN
!!!ARE: Europa, Mitteleuropa, Deutschland, Ober - Bayern
!!!SCT: E0604
!!!YEM: Copyright 1995, estate of Helmut Schaffrath.
**kern
*ICvox
*Ivox
*M3/4
*k[b-e-]
*B-:
{8f
8e-
=1
8d
8e-
8f
8g
8a
8b-
=2
8g
8cc
4.cc}
{8b-
=3
8a
8gg
4ff
8ee-
8cc
=4
8b-
8dd
4.f}
{8e-
=5
8d
8b-
8f
8dd
8b-
8ff
=6
8gg
8ff
8ee-
8dd}
{8cc
8b-
=7
8a
8gg
4ff
8ee-
8cc
=8
2b-}
==
!!!AGN: Liebes - Lied
!!!ONB: ESAC (Essen Associative Code) Database: ERK1
!!!AMT: simple triple
!!!AIN: vox
!!!EED: Helmut Schaffrath
!!!EEV: 1.0
*-
